app/images/star-full.svg

<svg width="20" height="20" viewBox="0 0 20 20" fill="none" xmlns="http://www.w3.org/2000/svg">
<path d="M10.9656 1.59475L13.2213 6.1352C13.3782 6.45099 13.6815 6.66981 14.0324 6.72037L19.0766 7.44851C19.9602 7.57616 20.3127 8.65449 19.6736 9.27323L16.0236 12.8075C15.7699 13.0532 15.654 13.4075 15.714 13.7544L16.5755 18.7449C16.7266 19.6189 15.8029 20.2853 15.0127 19.873L10.5013 17.517C10.1875 17.3533 9.81247 17.3533 9.49875 17.517L4.98725 19.873C4.19709 20.2858 3.27344 19.6189 3.42446 18.7449L4.28596 13.7544C4.34603 13.4075 4.23005 13.0532 3.9764 12.8075L0.326406 9.27323C-0.31273 8.65408 0.039796 7.57574 0.923405 7.44851L5.96765 6.72037C6.31851 6.66981 6.6218 6.45099 6.77867 6.1352L9.03441 1.59475C9.42908 0.79947 10.5705 0.79947 10.9656 1.59475Z" fill="#7F00AC"/>
</svg>

<svg width="20" height="20" fill="none" xmlns="http://www.w3.org/2000/svg"><path d="M10.966 1.595l2.255 4.54c.157.316.46.535.811.585l5.045.729c.883.127 1.236 1.205.597 1.824l-3.65 3.534c-.254.246-.37.6-.31.947l.862 4.99c.15.875-.773 1.541-1.563 1.129L10.5 17.517a1.085 1.085 0 0 0-1.002 0l-4.512 2.356c-.79.413-1.714-.254-1.563-1.128l.862-4.99a1.065 1.065 0 0 0-.31-.948L.326 9.273C-.313 8.654.04 7.576.923 7.45l5.045-.729c.35-.05.654-.269.81-.585l2.256-4.54c.395-.796 1.536-.796 1.932 0z" fill="#7F00AC"/></svg>
